X:385
T: Zank-Duett (111), S. 265
N: T0274
O: Luxemburg
S: Singendes Volk, Esch-Alzette 1937 posth.]
N: Straen, fff Witry, 6.12.1932
R: Liebeslieder]
M: 2/4
L: 1/8
K: C
G | c2BA | G2cE | GEC
C | EGcBA | d2cA | G2z
C | EGcBA | G2AB | c2z

